client/src/assets/images/icons/history.svg

<?xml version="1.0" encoding="UTF-8"?>
<svg viewBox="0 0 448 448" xmlns="http://www.w3.org/2000/svg">
  <path d="m255.89 32c-106.13 0-191.89 85.973-191.89 192h-64l83.093 83.093 1.493 3.093 86.081-86.186h-64c0-82.453 66.88-149.33 149.33-149.33s149.33 66.88 149.33 149.33-66.88 149.33-149.33 149.33c-41.28 0-78.507-16.853-105.49-43.84l-30.187 30.187c34.667 34.773 82.56 56.32 135.57 56.32 106.13 0 192.11-85.973 192.11-192s-85.973-192-192.11-192z"/>
  <polygon points="234.67 138.67 234.67 245.33 325.97 299.52 341.33 273.6 266.67 229.33 266.67 138.67"/>
</svg>

<?xml version="1.0" encoding="iso-8859-1"?>
<svg version="1.1" id="Capa_1" xmlns="http://www.w3.org/2000/svg" x="0px" y="0px"
     viewBox="0 0 448 448" style="enable-background:new 0 0 448 448;" xml:space="preserve">
  <g>
    <path d="M255.893,32C149.76,32,64,117.973,64,224H0l83.093,83.093l1.493,3.093L170.667,224h-64
      c0-82.453,66.88-149.333,149.333-149.333S405.333,141.547,405.333,224S338.453,373.333,256,373.333
      c-41.28,0-78.507-16.853-105.493-43.84L120.32,359.68C154.987,394.453,202.88,416,255.893,416C362.027,416,448,330.027,448,224
      S362.027,32,255.893,32z"/>
    <polygon points="234.667,138.667 234.667,245.333 325.973,299.52 341.333,273.6 266.667,229.333 266.667,138.667"/>
  </g>
</svg>
